!!!OTL: Das weinholende Maedchen Es hatt' ein Maedelein sein Kruegelein verlorn,
!!!ARE: Europa, Osteuropa, UdSSR, Wolga - Gebiet
!!!YOR: 6, S. 127
!!    1956 gedruckt in Bad Godesberg
!!!SCT: Q0129
!!!YEM: Copyright 1995, estate of Helmut Schaffrath.
**kern
*ICvox
*Ivox
*M4/4
*k[b-]
*F:
{8c
=1
4f
4f
8.f
16f
8f
8g
=2
8.a
16a
8a
8g
4f
8r}
{8g
=3
4a
4cc
8b-
8b-
8a}
{8c
=4
4f
4f
8.f
16f
8f
8g
=5
8.a
16a
8a
8g
4f
8r}
{8g
=6
4a
4cc
8b-
8b-
8a
8r
=7
4g
8a
8b-
8cc
8b-
8a
8a
=8
4.g
8f
4f
8r}
{8cc
=9
8.cc
16b-
8a
8b-
4.cc
8cc
=10
8.dd
16ee
8ff
8dd
4cc
8r}
{8a
=11
8.a
16b-
8cc
8cc
8b-
8b-
8a}
{8cc
=12
8.cc
16b-
8a
8b-
4.cc
8cc
=13
8.dd
16ee
8ff
8dd
4cc
8r}
{8a
=14
8.a
16b-
8cc
8cc
8b-
8b-
8a
8r
=15
4g
8a
8b-
4cc
8b-
8a
=16
4.g
8f
4f
8r}
==
!!!AGN: Ballade, Werbung; Scherz -, Vexier - Lied
!! Vexierlied: Lied mit "Auslassung"
!!!ONB: ESAC (Essen Associative Code) Database: BALLADE
!!!AMT: simple quadruple
!!!AIN: vox
!!!EED: Helmut Schaffrath
!!!EEV: 1.0
*-
